X:10804
T:Milliner's Daughter
M:C
L:1/8
K:G Major
G2BG DGBG|A2eg fdcA|G2BG DGBd|cAFG AGG2:|!
dgg2 dgg2|dff2 dff2|dgg2 dgg2|d^cde fd=cA|!
dgg2 bgag|fdde fefg|afge fde^c|d^cde fd=cA|]!
